images/bg-booster.svg

<svg width="1440" height="250" viewBox="0 0 1440 250" fill="none" xmlns="http://www.w3.org/2000/svg">
<rect width="1440" height="250" fill="#3A3054"/>
<mask id="mask0_0_948" style="mask-type:luminance" maskUnits="userSpaceOnUse" x="0" y="0" width="1440" height="250">
<rect width="1440" height="250" fill="white"/>
</mask>
<g mask="url(#mask0_0_948)">
<path fill-rule="evenodd" clip-rule="evenodd" d="M830 -63.4815C830 19.3514 854.361 78.6789 944.732 117C1035.1 155.321 1122.42 120.352 1210.01 140.4C1297.6 160.448 1297.6 289.595 1380.09 369.071C1462.57 448.547 1636.49 467.852 1777.91 387.221C1919.32 306.589 1983.43 118.325 1941.17 7.31897C1898.92 -103.687 1817.94 -205 1427.24 -205C1036.53 -205 830 -146.314 830 -63.4815Z" fill="#4B3F6B"/>
<path fill-rule="evenodd" clip-rule="evenodd" d="M-263.351 570.909C-233.666 648.24 -189.662 694.897 -91.5605 698.286C6.54131 701.676 75.5245 637.739 164.482 625.066C253.44 612.392 299.722 732.961 405.211 777.598C510.7 822.236 679.987 777.931 783.113 651.976C886.239 526.021 878.619 327.289 799.391 238.798C720.162 150.307 608.257 84.7429 243.501 224.76C-121.256 364.777 -293.036 493.578 -263.351 570.909Z" fill="#4B3F6B"/>
<path fill-rule="evenodd" clip-rule="evenodd" d="M-514 -377.482C-514 -294.649 -489.639 -235.321 -399.268 -197C-308.897 -158.679 -221.582 -193.648 -133.991 -173.6C-46.4005 -153.552 -46.4006 -24.4053 36.0855 55.071C118.572 134.547 292.491 153.852 433.906 73.2205C575.321 -7.41135 639.427 -195.675 597.173 -306.681C554.919 -417.687 473.943 -519 83.2357 -519C-307.471 -519 -514 -460.314 -514 -377.482Z" fill="#4B3F6B"/>
</g>
</svg>

<svg xmlns="http://www.w3.org/2000/svg" width="1440" height="250" fill="none"><path fill="#3A3054" d="M0 0h1440v250H0z"/><mask id="a" width="1440" height="250" x="0" y="0" maskUnits="userSpaceOnUse" style="mask-type:luminance"><path fill="#fff" d="M0 0h1440v250H0z"/></mask><g fill="#4B3F6B" fill-rule="evenodd" clip-rule="evenodd" mask="url(#a)"><path d="M830-63.481C830 19.35 854.361 78.678 944.732 117c90.368 38.321 177.688 3.352 265.278 23.4 87.59 20.048 87.59 149.195 170.08 228.671 82.48 79.476 256.4 98.781 397.82 18.15 141.41-80.632 205.52-268.896 163.26-379.902C1898.92-103.687 1817.94-205 1427.24-205 1036.53-205 830-146.314 830-63.481ZM-263.351 570.909c29.685 77.331 73.689 123.988 171.79 127.377 98.102 3.39 167.085-60.547 256.043-73.22 88.958-12.674 135.24 107.895 240.729 152.532 105.489 44.638 274.776.333 377.902-125.622 103.126-125.955 95.506-324.687 16.278-413.178-79.229-88.491-191.134-154.055-555.89-14.038-364.757 140.017-536.537 268.818-506.852 346.149ZM-514-377.482c0 82.833 24.361 142.161 114.732 180.482s177.686 3.352 265.277 23.4c87.59 20.048 87.59 149.195 170.077 228.671 82.486 79.476 256.405 98.781 397.82 18.15C575.321-7.412 639.427-195.675 597.173-306.681 554.919-417.687 473.943-519 83.236-519S-514-460.314-514-377.482Z"/></g></svg>
